img/next.svg

<svg width="71" height="71" viewBox="0 0 71 71" fill="none" xmlns="http://www.w3.org/2000/svg">
<circle cx="35.5" cy="35.5" r="35.5" fill="black" fill-opacity="0.35"/>
<path d="M43.5656 34.4465L31.4459 22.4313C31.1656 22.1532 30.7914 22 30.3924 22C29.9934 22 29.6192 22.1532 29.3389 22.4313L28.4464 23.316C27.8656 23.8924 27.8656 24.8293 28.4464 25.4048L38.6236 35.4944L28.4351 45.5952C28.1548 45.8733 28 46.244 28 46.6394C28 47.0352 28.1548 47.4059 28.4351 47.6843L29.3276 48.5687C29.6081 48.8468 29.9821 49 30.3811 49C30.7801 49 31.1543 48.8468 31.4346 48.5687L43.5656 36.5426C43.8466 36.2636 44.0009 35.8911 44 35.4951C44.0009 35.0975 43.8466 34.7252 43.5656 34.4465Z" fill="white"/>
<path d="M45 35.4951C45.0009 34.8321 44.7409 34.2039 44.2699 33.7366L44.2696 33.7363L32.1502 21.7215C32.1501 21.7214 32.15 21.7213 32.1499 21.7212C31.6802 21.2553 31.0521 21 30.3924 21C29.7328 21 29.1047 21.2552 28.635 21.7211C28.6349 21.7211 28.6349 21.7212 28.6348 21.7212C28.6347 21.7213 28.6347 21.7214 28.6346 21.7215L27.7424 22.6057L27.7419 22.6062C26.7674 23.5734 26.7666 25.1479 27.7423 26.115C27.7424 26.115 27.7424 26.1151 27.7425 26.1151L37.2032 35.4944L27.731 44.885L27.7308 44.8853C27.2615 45.3509 27 45.977 27 46.6394C27 47.3021 27.2614 47.9281 27.7305 48.3939L27.7312 48.3946L28.6236 49.2788C28.6236 49.2789 28.6237 49.2789 28.6237 49.279C29.0934 49.7446 29.7212 50 30.3811 50C31.0409 50 31.6692 49.7446 32.1389 49.2785L44.2696 37.2527L44.2702 37.2522C44.7406 36.7851 45.0009 36.157 45 35.4951ZM45 35.4951C45 35.4958 45 35.4965 45 35.4973L44 35.4951L45 35.4928C45 35.4936 45 35.4943 45 35.4951Z" stroke="black" stroke-opacity="0.14" stroke-width="2"/>
</svg>

<svg xmlns="http://www.w3.org/2000/svg" fill="none" viewBox="0 0 71 71"><circle cx="35.5" cy="35.5" r="35.5" fill="#000" fill-opacity=".35"/><path fill="#fff" d="M43.566 34.447L31.446 22.43A1.485 1.485 0 0 0 30.392 22c-.399 0-.773.153-1.053.431l-.893.885a1.47 1.47 0 0 0 0 2.089l10.178 10.09-10.189 10.1A1.46 1.46 0 0 0 28 46.64c0 .396.155.767.435 1.045l.893.885c.28.278.654.431 1.053.431.4 0 .773-.153 1.054-.431l12.13-12.026c.282-.28.436-.652.435-1.048 0-.398-.153-.77-.434-1.048z"/><path stroke="#000" stroke-opacity=".14" stroke-width="2" d="M45 35.495c0-.663-.26-1.291-.73-1.758h0L32.15 21.72s0 0 0 0A2.485 2.485 0 0 0 30.392 21c-.66 0-1.287.255-1.757.721 0 0 0 0 0 0s0 0 0 0l-.893.885h0a2.47 2.47 0 0 0 0 3.509s0 0 0 0l9.461 9.38-9.472 9.39h0A2.46 2.46 0 0 0 27 46.64c0 .663.261 1.29.73 1.755h.001l.893.885s0 0 0 0c.47.466 1.097.721 1.757.721.66 0 1.288-.255 1.758-.721l12.13-12.026h.001c.47-.468.73-1.096.73-1.758zm0 0v.002l-1-.002 1-.002v.002z"/></svg>
